src/images/dist/icons/download-icon.svg

<svg width="10" height="9" viewBox="0 0 10 9" fill="none" xmlns="http://www.w3.org/2000/svg">
<path d="M8.00362 4.89551L5 7.59876L1.99638 4.89551L2.54883 4.39831L4.60938 6.2528V0H5.39062V6.2528L7.45117 4.39831L8.00362 4.89551ZM10 8.29688H0V9H10V8.29688Z" fill="white"/>
</svg>

<svg width="10" height="9" fill="none" xmlns="http://www.w3.org/2000/svg"><path d="M8.004 4.896L5 7.599 1.996 4.896l.553-.498 2.06 1.855V0h.782v6.253l2.06-1.855.553.498zM10 8.296H0V9h10v-.703z" fill="#fff"/></svg>
